X: 348
T: Naiwawa diao
%%abc-version 2.0
%%abcx-abcm2ps-target-version 5.9.1 (29 Sep 2008)
%%abc-creator hum2abc beta
%%abcx-conversion-date 2013/10/02 07:52:30
%%abc-edited-by Helmut Schaffrath
%%humdrum-veritas 3299697099
%%humdrum-veritas-data 4074262216
%%continueall 1
%%barnumbers 0
L: 1/8
M: 2/4
K: F
z F F F [I:setbarnb 1]| 
F D d c- | 
c d c/ d/ c/ A/ | 
cG3 | 
z c G A/ G/ | 
D> C G3/ G/ | 
A G/ A/ G D/ F/ | 
C4 | 
G G E F | 
G Gc2 | 
d d/ d/ c/ d/ c/ A/ | 
c G G C- | 
C A c c/ d/ | 
f f/ A< G A/ | 
c/ c/ c/ F/ G A/ G/ | 
F> DC2 |]  



